svg/white/req.svg

<svg xmlns="http://www.w3.org/2000/svg" width="32" height="32" viewBox="0 0 32 32">
  <path fill="#FFF" d="M16,32 C7.163444,32 0,24.836556 0,16 C0,7.163444 7.163444,0 16,0 C24.836556,0 32,7.163444 32,16 C32,24.836556 24.836556,32 16,32 Z M10,6 L10,7.72219139 L16.9155606,7.72329138 C17.8083383,7.71142478 18.4627973,7.78512441 18.8789374,7.94439028 C20.3848116,8.45668772 21.414626,10.00888 21.294413,11.5655722 C21.2558714,13.3677632 19.649361,14.9610552 17.811703,15.009955 C16.219977,15.0321548 14.6270275,15.0121549 13.0340779,15.0199549 C14.5290422,17.460676 16.7741395,21.1206911 19.76937,26 L21.1991807,25.1022045 C18.9061046,21.3592454 17.1844113,18.5533261 16.0341006,16.6844466 C17.0411776,16.6655467 18.070992,16.7689462 19.0521706,16.4911475 C20.597504,16.0822496 21.9196429,14.9533552 22.5518062,13.5111624 C23.2497349,11.9444703 23.1296238,10.0433798 22.2119674,8.58558707 C21.436038,7.32669337 20.0991146,6.41559792 18.6229113,6.14999925 C18.1810767,6.05739971 17.5091483,6.00739996 16.6071261,6 L10,6 Z"/>
</svg>

<svg xmlns="http://www.w3.org/2000/svg" width="32" height="32"><path fill="#FFF" d="M16 32C7.163 32 0 24.837 0 16S7.163 0 16 0s16 7.163 16 16-7.163 16-16 16zM10 6v1.722l6.916.001c.892-.012 1.547.062 1.963.221 1.506.513 2.536 2.065 2.415 3.622-.038 1.802-1.645 3.395-3.482 3.444-1.592.022-3.185.002-4.778.01 1.495 2.44 3.74 6.1 6.735 10.98l1.43-.898a5181.37 5181.37 0 0 0-5.165-8.418c1.007-.018 2.037.085 3.018-.193 1.546-.409 2.868-1.538 3.5-2.98.698-1.567.578-3.468-.34-4.925a5.389 5.389 0 0 0-3.59-2.436c-.44-.093-1.113-.143-2.015-.15H10z"/></svg>
